X:10
T:Waltz. Dix.10
M:3/8
L:1/16
Q:1/8=80
S:Anon. MS dated 1811, from Dixon collection, Holton le Moor, Lincs.
R:waltz
O:England;Lincolnshire;Holton le Moor
Z:vmp.R.Greig 2010 <http://www.village-music-project.org.uk>
K:Bb
“$”d>e|f2f2 bg|gf f2 df|feedef|d4 d>e|
f2f2 bg|gf f2 df|fegecA|B4|
f2f2 bg|gf f2 df|feedef|d4 d>e|
gf f2 bd’|d’c’d’c’ac’|b4:|
|:bd’|d’c’e’d’ac’|{a}babc’bd’|d’c’e’c’ac’|b4 bd’|
d’c’e’d’ac’|{a}babc’bd’|d’c’e’c’ac’|”$”b4:|

